svgs/thin/train-tunnel.svg

<svg xmlns="http://www.w3.org/2000/svg" viewBox="0 0 512 512"><!--! Font Awesome Pro 6.4.2 by @fontawesome - https://fontawesome.com License - https://fontawesome.com/license (Commercial License) Copyright 2023 Fonticons, Inc. --><path d="M256 16C123.5 16 16 123.5 16 256V504c0 4.4-3.6 8-8 8s-8-3.6-8-8V256C0 114.6 114.6 0 256 0S512 114.6 512 256V504c0 4.4-3.6 8-8 8s-8-3.6-8-8V256C496 123.5 388.5 16 256 16zM192 144c-35.3 0-64 28.7-64 64V368c0 35.3 28.7 64 64 64H320c35.3 0 64-28.7 64-64V208c0-35.3-28.7-64-64-64H192zm0-16H320c44.2 0 80 35.8 80 80V368c0 38.2-26.8 70.2-62.6 78.1l52.2 52.2c3.1 3.1 3.1 8.2 0 11.3s-8.2 3.1-11.3 0L316.7 448H195.3l-61.7 61.7c-3.1 3.1-8.2 3.1-11.3 0s-3.1-8.2 0-11.3l52.2-52.2C138.8 438.2 112 406.2 112 368V208c0-44.2 35.8-80 80-80zm80 248a16 16 0 1 0 -32 0 16 16 0 1 0 32 0zm-48 0a32 32 0 1 1 64 0 32 32 0 1 1 -64 0zM192 208c-8.8 0-16 7.2-16 16v64c0 8.8 7.2 16 16 16H320c8.8 0 16-7.2 16-16V224c0-8.8-7.2-16-16-16H192zm-32 16c0-17.7 14.3-32 32-32H320c17.7 0 32 14.3 32 32v64c0 17.7-14.3 32-32 32H192c-17.7 0-32-14.3-32-32V224z"/></svg>

<svg xmlns="http://www.w3.org/2000/svg" viewBox="0 0 512 512"><!--! Font Awesome Pro 6.1.1 by @fontawesome - https://fontawesome.com License - https://fontawesome.com/license (Commercial License) Copyright 2022 Fonticons, Inc. --><path d="M256 16C123.5 16 16 123.5 16 256V504C16 508.4 12.42 512 8 512C3.582 512 0 508.4 0 504V256C0 114.6 114.6 0 256 0C397.4 0 512 114.6 512 256V504C512 508.4 508.4 512 504 512C499.6 512 496 508.4 496 504V256C496 123.5 388.5 16 256 16zM288 376C288 393.7 273.7 408 256 408C238.3 408 224 393.7 224 376C224 358.3 238.3 344 256 344C273.7 344 288 358.3 288 376zM256 360C247.2 360 240 367.2 240 376C240 384.8 247.2 392 256 392C264.8 392 272 384.8 272 376C272 367.2 264.8 360 256 360zM160 224C160 206.3 174.3 192 192 192H320C337.7 192 352 206.3 352 224V288C352 305.7 337.7 320 320 320H192C174.3 320 160 305.7 160 288V224zM176 224V288C176 296.8 183.2 304 192 304H320C328.8 304 336 296.8 336 288V224C336 215.2 328.8 208 320 208H192C183.2 208 176 215.2 176 224zM320 128C364.2 128 400 163.8 400 208V368C400 406.2 373.2 438.2 337.4 446.1L389.7 498.3C392.8 501.5 392.8 506.5 389.7 509.7C386.5 512.8 381.5 512.8 378.3 509.7L316.7 448H195.3L133.7 509.7C130.5 512.8 125.5 512.8 122.3 509.7C119.2 506.5 119.2 501.5 122.3 498.3L174.6 446.1C138.8 438.2 112 406.2 112 368V208C112 163.8 147.8 128 192 128H320zM192 144C156.7 144 128 172.7 128 208V368C128 403.3 156.7 432 192 432H320C355.3 432 384 403.3 384 368V208C384 172.7 355.3 144 320 144H192z"/></svg>
